X:1
T:Title
%%score [ 1 2 3 4 ]
L:1/8
Q:1/4=240
M:2/2
K:C
V:1 treble nm="MusicXML Part"
V:2 treble-8 nm="MusicXML Part"
V:3 treble-8 nm="MusicXML Part"
V:4 bass nm="MusicXML Part"
V:1
 z4 A8 G4- | G2 E2 F4 G4 A4- | A4 ^G4 z8 | z4 A8 G4- | G2 E2 F4 G4 A4- | A4 ^G4 z4 c4- | %6
w: Ky- *|* ri- e e- lei-|* son|Ky- *|* ri- e e- lei-|son * Ky-|
 c4 B6 G2 A4 | B4 c8 B4- | B4 A8 ^G4 | A16 | ^G16 | G8 E4 c4- | c4 B2 A2 c4 B4 | A4 G4 F8 | %14
w: * * ri- e|e- lei *|||son.|Chri- ste e-||* * lei-|
 E12 C4 | z4 c8 B4 | A4 G4 F8 | E4 e8 d4- | d2 c2 c8 B4- | B2 A2 A6 G2 G4- | G4 F4 G8 | E16 | %22
w: * son|Chri- ste|e- * lei-|son, Chri- *|* * ste e-|* * * * lei-||son.|
 z4 G8 A4- | A2 G2 ^F4 G4 E4 | A4 G6 A2 F4 | E8 z4 A4- | A4 G6 A2 F2 E2 | D4 C4 G2 c4 B2 | c8 A8 | %29
w: Ky- *|* * ri- e e-|lei- * * *|son Ky-|* * * ri- *|e e- * lei *||
 B4 c4 A8 | B6 A2 G4 c4- | c2 B2 A2 G2 F2 E2 c4 | B4 A8 ^G4 | A16 | ^G16 |] z104 || %36
w: * son Ky-|* * ri- e|* * * * * * e-|lei- * *||son.||
[M:2/2] z8 A6 A2 | G4 E4 ^F4 G4 | A4 A4 ^G8 | z16 | G8 E4 c4- | c4 A4 c4 B4 | z4 E8 A4- | %43
w: Et in|ter- ra pax ho-|mi- ni- bus||bo- nae vo-|* lun- ta- tis.|Lau- da-|
 A4 G4 E2 G4 G2 | A6 G2 ^F4 G4 | E4 A4 G4 F4 | E4 c4 B2 G2 A2 B2 | c4 z4 z8 | G6 G2 E4 A4 | %49
w: * mus te. Be- ne-|di- ci- mus te.|Ad- o- ra- mus|te. Glo- ri- fi- ca- mus|te.|Gra- ti- as a-|
 D4 A6 ^G2 G4 | A2 B2 c8 B4 | c4 C6 C2 G4- | G4 F4 E4 D4 | E4 G8 F4 | G8 z2 A2 B2 B2 | %55
w: gi- mus * *|ti- * * *|bi pro- pter ma-|* gnam glo- ri-|am tu- *|am. Do- mi- ne|
 c4 B4 A4 G4 | F4 E4 A4 B4 | c4 B4 G4 c4- | c2 B2 B6 A2 A4- | A4 G4 A2 E2 E2 E2 | %60
w: De- us, Rex coe-|le- stis, De- us|Pa- ter o- mni-||* po- tens. Do- mi- ne|
 ^F4 G4 A2 A2 G2 =FE | F2 F2 E4 A8 | G8 G8- | G8 A8 | z8 G4 ^F2 G2 | E4 D4 z4 G4- | %66
w: Fi- li u- ni- ge- * *|* ni- te, Je-|su Chri-|* ste.|Do- mi- ne|De- us, Do-|
 G2 ^F2 A4 c4 B4 | A2 E2 A4 ^G4 A4- | A4 E4 F8 | E8 E8 | A8 c8 | B6 c2 A4 B4 | c4 B4 G8 | %73
w: * mi- ne De- us|A- gnus De- i Fi-|* li- us|Pa- tris.|Qui tol-|lis pec- ca- ta|mun- di, mi-|
 A4 c8 B4 | A6 G2 A8 | B4 G8 A4- | A4 G4 z8 | z8 z4 B4 | c8 B4 c4 | A4 B4 c4 B4 | z4 E8 ^F4 | %81
w: se- re- re|no- * *|bis. Qui tol-|* lis|Qui|tol- lis pec-|ca- ta mun- di|su- sci-|
 ^F4 G8 G4 | A4 A4 G6 A2 | F8 E8 | z4 z2 D2 G4 F2 F2 | c2 c2 A4 A4 B4 | c4 C4 F2 E2 D4 | %87
w: pe de- pre-|ca- ti- o- nem|no- stram.|Qui se- des ad|dex- te- ram Pa- tris|mi- se- re- re no-|
 E4 z2 c4 B2 A2 A2 | G2 A2 F4 E8 | z16 | z16 | z4 A4 ^G8 | A4 B4 c8- | c4 B2 A2 B4 c4 | A4 B8 c4 | %95
w: bis. Quo- ni- am tu|so- lus san- ctus.|||Tu so-|lus Al- tis-|* * * * si-|mus, Je- su|
 A8 A4 A4 | A8 D4 A4- | A4 G4 A4 c4 | B4 G4 G4 A4 | A4 G8 F4 | G4 B4 c3 c B4 | %101
w: Chri- ste. Cum|San- cto Spi-|* ri- tu in|glo- ri- a De-|i Pa- *|tris, in glo- ri- a|
 A3 A G2 E2 F4 E2 E2 | A3 A G4 F2 D2 E4 | ^F4 z2 D2 A3 A G2 c2- | c2 B2 G4 A2 A4 ^G2 | A8 ^G8 |] %106
w: De- i Pa- tris. A- men, in|glo- ri- a De- i Pa-|tris, in glo- ri- a De-|* i Pa- tris. A- *|* men.|
 z56 |[M:2/2] z16 | z8 z4 A4- | A4 G6 E2 F4 | G4 A8 ^G2 G2 | A4 G4 E4 A4- | A2 A2 A4 ^F8 | %113
w: ||Pa-|* trem o- mni-|po- ten- tem, fa-|cto- rem coe- li|* et ter- rae,|
 G8 E4 c4- | c2 c2 A4 B4 A4- | A4 G4 A4 z2 G2 | G4 A6 G2 ^F4 | G4 E4 A8 | G4 c8 B4 | A4 A4 B8 | %120
w: vi- si- bi-|* li- um o- *|* mni- um, et|in- vi- si- bi-|li- um. Et|in u- num|Do- mi- num|
 G12 G4 | E8 D4 A4 | G2 E2 F2 G2 A4 G4 | _B4 A4 G8 | A8 D4 A4- | A4 B4 c2 A2 c4- | %126
w: Je- sum|Chri- stum, Fi-|li- um De- i u- ni-|ge- ni- tum.|Et ex Pa-|* tre na- * *|
 c2 B4 AG A2 B2 A4 | B2 G4 G2 G4 G2 G2- | G2 ^FE F4 G4 E4 | E8 z8 | z8 z4 G4 | D4 G4 F4 E4 | %132
w: |tum an- te o- mni- a|* * * * sae- cu-|la.|De-|um de De- o,|
 A4 G8 c4 | B4 A4 B4 G4 | G4 A6 A2 G4 | E4 F4 G8 | G8 z4 B4- | B2 B2 c4 B4 A4 | ^G4 A6 A2 c2 c2 | %139
w: lu- men de|lu- mi- ne, De-|um ve- rum de|De- o ve-|ro. Ge-|* ni- tum, non fa-|ctum con- sub- stan- ti-|
 B2 c2 A4 G2 c2 B4 | c4 A4 G4 F4- | F4 E4 E4 z2 E2 | F4 E2 E2 D4 ^C4 | D2 G2 E2 F2 G4 A2 A2 | %144
w: a- lem Pa- tri: per quem|o- mni- a fa-|* cta sunt. Qui|pro- pter nos ho- mi-|nes et pro- pter no- stram, et|
 _B2 B2 A4 G4 ^F4 | G4 A4 z4 d4 | c4 B4 A8 | D8 E8 | F16 | E16 | c16 | c12 G4 | _B8 B8 | %153
w: pro- pter no- stram sa-|lu- tem de-|scen- dit de|coe- *||lis.|Et|in- car-|na- tus|
 A4 E8 A4- | A2 ^G2 G4 A8 | ^G4 B8 B4 | c4 B4 A4 A4 | ^G4 B4 c8- | c4 B4 A4 G4 | F8 F8 | E16 | %161
w: est de Spi-|* ri- tu San-|cto, ex Ma-|ri- a Vir- gi-|ne: et ho-|* mo fa- *|* ctus|est.|
 z4 A8 A4 | G6 E2 F4 G4 | A4 B4 c8 | B8 z4 E4 | E4 G8 A4 | B4 c4 G4 C4 | c8 A4 A4- | A4 G6 E2 F4 | %169
w: Cru- ci-|fi- xus e- ti-|am pro no-|bis sub|Pon- * *|* ti- o Pi-|la- to, Pon-|* * ti- o|
 G4 A8 D4 | z16 | G8 E4 c4- | c4 A4 c4 B4 | A4 D8 G4- | G4 A4 B8 | G12 d4 | c4 _B4 A6 G2 | %177
w: Pi- la- to||pas- sus et|* se- pul- tus|est. Et re-|* sur- re-|xit ter-|ti- a di- *|
 F4 E2 D2 F4 E4 | z4 c4 B4 A4- | A4 G4 F8 | E8 A8- | A4 B4 c8 | A4 d4 c4 B2 B2 | A4 B4 c2 B4 AG | %184
w: * * * * e|se- cun- dum|* Scri- ptu-|ras. Et|* a- scen-|dit in coe- lum, se-|det ad dex- * * *|
 A4 A4 G4 c4 | B4 A4 G4 F4 | E2 F4 ED E2 F2 G2 D2 | F4 E4 A8- | A8 ^G8 | z8 E4 A2 A2 | %190
w: * te- ram, se-|det ad dex- te-|ram Pa- * * * * * *||* tris.|Et i- te-|
 G4 c4 B4 G4 | A8 d4 c2 c2 | A4 B4 c4 A4 | G4 E4 A2 D2 A4- | A2 G2 G8 F4 | G8 G8 | G4 c8 B4 | %197
w: rum ven- tu- rus|est cum glo- ri-|a iu- di- ca-|re vi- vos et mor-|* * * tu-|os: cu-|ius re- gni|
 A4 c8 B4- | B4 A8 G4 | A4 A8 A4 | c4 B4 A8 | z4 G8 F4 | E2 D2 E4 D4 z4 | z16 | z8 G6 G2 | %205
w: non e- rit|* fi- *|nis. Et in|Spi- ri- tum|et vi-|vi- fi- can- tem:||Qui cum|
 F4 E2 E2 G2 G2 A4 | c4 B2 d4 A4 c2- | c2 B2 A4 ^G4 A4 | B4 c4 A2 A2 B4- | B2 A2 A8 ^G4 | %210
w: Pa- tre et Fi- li- o|si- mul ad- o- ra-|* * * tur et|con- glo- ri- fi- ca-||
 A4 E6 E2 ^F2 F2 | G4 F4 E4 D4 |[M:3/1] D4 G4 F4 G4 E8 | D4 G4 A8 B8 | c16 z8 | G16 G8 | %216
w: tur: qui lo- cu- tus|est per Pro- phe-|tas. Et u- nam san-|ctam ca- tho- li-|cam|et a-|
 G8 A12 A4 | G4 G4 F8 E8 |[M:2/2] E4 B4 c4 B4 | A4 ^G4 A6 =G2 | F4 E4 D4 ^C4 | A6 A2 G4 F4 | %222
w: po- sto- li-|cam Ec- cle- si-|am. Con- fi- te-|or u- num *|* ba- ptis- ma|in re- mis- si-|
 E4 D4 G4 F4 | F4 E8 E4- | E4 E4 D8 | ^C4 E8 F4 | G4 A4 B4 c4 | d4 c2 B2 A4 G4 | F4 E2 D2 E8 | %229
w: o- nem pec- ca-|to- rum. Et|* ex- pe-|cto re- sur-|re- cti- o- nem|mor- * * * tu-|o- * * *|
 D2 D2 G4 F2 A2 G2 E2 | F2 F2 E2 A2 A4 A2 E2 | G2 ^F2 A2 A2 ^G2 G2 A2 A2 | B2 c2 A4 z2 D2 G4 | %233
w: rum. Et vi- tam ven- tu- ri|sae- cu- li, et vi- tam ven-|tu- ri sae- cu- li, ven- tu- ri|sae- cu- li, et vi-|
 F2 D2 E2 E2 D2 D2 ^C2 A2 | c4 B2 G2 A2 A2 G2 G2 | E2 A4 ^G2 A8 | ^G16 |]"^SANCTUS" A16 | G12 E4 | %239
w: tam ven- tu- ri sae- cu- li, et|vi- tam ven- tu- ri sae- cu-|li. A- * *|men.|San-||
 ^F8 G8 | A6 GF E8 | E6 F2 G2 A2 B2 c2 | d4 c2 B2 A6 D2 | E2 F2 G8 F4 | G8 z8 | z16 | %246
w: |ctus * * *|San- * * * * *|||ctus||
 G6 G2 G4 A4- | A4 ^F4 G6 A2 | F4 E2 D2 F4 E4 | D8 z8 | z8 z4 G4- | G2 G2 G4 A4 ^F4 | G4 E4 D8 | %253
w: Do- mi- nus De-|* us Sa- *|* * * * ba-|oth|Do-|* mi- nus De- us|Sa- ba- oth.|
 E8 G4 G4 | G8 A4 A4 | A8 D4 G4- | G2 G2 G4 A8 | ^G16 || z16 | z16 | z16 | z16 | z16 | z16 | z16 | %265
w: Ple- ni sunt|coe- li et|ter- ra glo-|* ri- a tu-|a.||||||||
 z16 | z16 | z16 | z16 | z16 | z16 | z16 | z16 | z16 | z16 | z16 | z16 | z16 | z16 | z16 | z16 | %281
w: ||||||||||||||||
 z16 | z16 | z16 | z16 | z16 |] z16 | z8 z4 B4- | B4 c4 A4 B4 | c8 B4 B4 | c4 B4 A4 G2 E2 | %291
w: ||||||A-|* gnus * De-|* i qui|tol- lis pec- ca- ta|
 F4 E4 z2 E2 A4 | G2 E2 F4 E2 A4 ^G2 | A2 A2 d4 c2 B2 B2 B2 | A4 ^G2 G2 A4 =G2 E2 | %295
w: mun- di, qui tol-|lis pec- ca- ta mun- *|di, qui tol- lis pec- ca- ta|mun- di, qui tol- lis pec-|
 D2 G2 G4 G4 c4- | c4 B4 A4 G4 | A6 B2 c4 B2 G2- | G2 F2 E6 DC D4 | E4 E8 D4 | E4 G4 F4 E4 | %301
w: ca- ta mun- di, mi-|* se- re- re|no- * * bis, mi-|* se- re- * * *|re, mi- se-|re- re no- bis,|
 z4 A8 G4 | c4 B4 A8 | E16- | E16 |] %305
w: mi- se-|re- re no-|bis.||
V:2
 A8 c6 B2 | c4 d4 e8 | e8 z8 | z8 z4 e4- | e4 d4 e4 e4 | e16 | e4 e8 d4- | d2 e2 c4 d4 e4 | %8
w: Ky- * ri-|e e- lei-|son|Ky-|* ri- e e-|lei-|son Ky- *|* ri- e e- *|
 d2 e2 f4 e2 e4 B2 | ^c4 d4 e8 | e16 | z4 c8 A4 | f8 e4 g4 | f4 e8 d4 | c4 B4 c4 A4- | %15
w: lei- * * * son e-|lei * *|son.|Chri- ste|e- * *|* lei- *|* * son Chri-|
 A2 B2 c2 d2 e8 | c4 e8 d4 | c4 B2 B2 c4 d4 | e4 g4 f4 d4 | f8 e8 | d16 | ^c16 | z16 | z16 | z16 | %25
w: |ste e- *|lei- son, e- lei- *|* * son, Chri-|ste e-|lei-|son.||||
 z4 e8 f4- | f2 e2 d4 e4 c4 | f4 e6 f2 d4 | e8 d4 d4- | d4 e6 d2 c4 | d4 d4 e8 | %31
w: Ky- *|* * ri- e e-|lei- * * *|* son Ky-|* * * ri-|e e- lei|
 f6 g2 a2 g2 f2 e2 | d4 f4 e4 e4 | f2 e2 e8 d4 | e16 |] z104 ||[M:2/2] A8 A4 c4- | %37
w: |son Ky- * ri-|e e- lei- *|son.||Et in ter-|
 c2 B2 c4 d4 e4- | e4 e4 e8 | z8 z4 e4- | e4 B4 c4 G4 | c6 d2 e6 d2 | c2 BA ^G4 A4 e4 | %43
w: * ra pax ho- mi-|* ni- bus|bo-|* nae vo- lun-|ta- * * *|* * * * tis. Lau-|
 d4 d4 c2 e4 e2 | f6 d2 d4 d4 | z2 g4 f4 e4 d2 | ^c2 c2 e2 f2 g4 f4 | e8 z4 e4- | e2 d2 d4 g4 f4 | %49
w: da- mus te. Be- ne-|di- ci- mus te.|Ad- o- ra- mus|te. Glo- ri- fi- ca- mus|te. Gra-|* ti- as a- gi-|
 f4 e8 e4 | z8 G8 | G4 A8 B4 | c6 d2 e2 f2 g4- | g2 g2 e4 c8 | d4 z2 e2 e2 e2 g4 | f2 e4 e2 e8 | %56
w: mus ti- bi|pro-|pter ma- gnam|glo- * * * *|* ri- am tu-|am. Do- mi- ne De-|us, Rex coe- le-|
 c4 e4 e4 e4- | e2 dc d4 e4 c4 | g4 g4 e8- | e8 z2 ^c2 c2 c2 | d4 e4 f2 c2 e4 | d4 ^c4 z4 f4- | %62
w: stis, De- us Pa-|* * * * ter o-|mni- po- tens.|* Do- mi- ne|Fi- li u- ni- ge-|ni- te, Je-|
 f2 e4 dc d4 e4 | d8 f8 | z8 e4 d2 B2 | c4 B4 z8 | A3 B c2 d2 e4 e4 | e8 e4 e4- | e4 ^c4 d8 | %69
w: * * * * * su|Chri- ste.|Do- mi- ne|De- us|A- * * * * gnus|De- i Fi-|* li- us|
 B8 ^c8 | z8 z4 A4 | e8 d6 e2 | c4 d4 e4 d4 | f8 d4 g4 | ^f4 g8 f4 | g8 e8- | e8 f8 | %77
w: Pa- tris.|Qui|tol- lis pec-|ca- ta mun- di,|mi- se- re-|re no- *|bis. Qui|* tol-|
 e4 f2 d4 c2 B4 | A4 e4 e4 e2 e2 | f4 e4 e8 | ^c4 c8 d4 | d4 e8 e4 | f4 c4 e4 e4 | d6 c2 B8 | %84
w: lis pec- ca- ta mun-|di Qui tol- lis pec-|ca- ta mun-|di su- sci-|pe de- pre-|ca- ti- o- nem|no- * *|
 c2 e2 f4 e2 e2 c2 c2 | g4 f4 e4 E2 E2 | A4 G2 c4 BA B4 | c4 f4 e2 d4 c2 | B2 c2 d8 ^c4 | z16 | %90
w: stram. Qui se- des ad dex- te-|ram Pa- tris mi- se-|re- re no- * * *|bis. Quo- ni- am tu|so- lus san- ctus.||
 z4 z2 e4 f4 e2 | e4 d4 e4 e4 | c4 d4 f4 e4- | e2 d2 e2 f2 g4 g4 | ^f4 g4 d4 e4- | e2 d2 d8 ^c4 | %96
w: Tu so- lus|Do- mi- nus. Tu|so- lus Al- tis-|* * * * * si-|mus, Je- su Chri-|* * * ste.|
 z4 f4 f4 e4 | e6 e2 ^f4 g4 | g2 G2 B4 c8 | d4 e6 d2 c4 | B2 B2 g2 g2 f2 e4 e2 | c2 d2 e4 d4 G4 | %102
w: Cum San- cto|Spi- ri- tu in|glo- ri- a De-|i Pa- * *|tris, in glo- ri- a De- i|Pa- * tris. A- men,|
 z2 c2 e3 e d4 ^c4 | d2 A2 d3 d c2 d2 G2 g2- | g2 d2 e12 | e16 |] z56 |[M:2/2] z16 | z8 z4 A4 | %109
w: in glo- ri- a De-|i in glo- ri- a De- i Pa-|* tris. A-|men.|||Pa-|
 c4 B4 c4 d4 | e4 e4 z2 e2 e4 | c2 d4 e4 A2 f4 | e8 z4 d4 | B4 c6 c2 A4 | f6 e2 d4 f4 | e8 d4 d4 | %116
w: trem o- mni- po-|ten- tem, fa- cto-|rem coe- li et ter-|rae, vi-|si- bi- li- um|o- mni- um, et|in- vi- si-|
 e6 e2 f4 d4 | e4 g4 f4 e4- | e2 d2 f2 ed e2 f2 g4- | g4 ^f4 g8 | e6 d2 c4 B4 | A8 A8 | %122
w: bi- li- um. *|* Et in u-|* num Do- * * * * *|* mi- num|Je- * * sum|Chri- stum,|
 e4 d2 B2 c2 d2 e4 | d4 f4 e4 d4 | f4 e2 c2 d2 e2 f4 | e4 g4 f4 e4 | g2 d2 g4 ^f2 g4 f2 | %127
w: Fi- li- um De- i u-|ni- ge- ni- tum,|Fi- li- um De- i u-|ni- ge- ni- tum.|Et ex Pa- tre na- *|
 g2 d4 d2 e4 d4 | d2 cB A4 B4 A4 | ^G8 A4 f4 | e4 g2 fe f4 e4 | z8 z4 g4 | f4 d4 e2 f2 g4- | %133
w: tum an- te o- mni-|a * * * sae- cu-|la. De- um|de De- * * * o,|lu-|men de lu- * *|
 g4 f4 g4 d4 | e4 A6 A2 B4 | c4 c4 d8 | e2 e4 e2 f4 e4 | d4 c2 A4 G2 A4 | B4 d4 ^c4 e3 e | %139
w: * mi- ne, De-|um ve- rum de|De- o ve-|ro. Ge- ni- tum, non|fa- ctum Ge- ni- tum,|non fa- ctum con- sub-|
 g2 g2 f2 f2 e4 d4 | e4 f4 e4 A2 c2 | d6 c2 B4 ^c4 | d4 z2 e2 f4 e2 e2 | d4 ^c4 d2 g2 e2 f2 | %144
w: stan- ti- a- lem Pa- tri:|per quem o- mni- a|fa- * * cta|sunt. Qui pro- pter nos|ho- mi- nes et pro- pter|
 g4 d6 d2 d4 | B2 B2 d2 d2 e4 d4 | e4 g6 fe f4 | g4 d8 c4 | _B4 A4 d8 | ^c16 | f16 | e12 e4 | %152
w: no- stram sa- lu-|tem, et pro- pter no- stram|sa- lu- * * *|tem de- scen-|dit de coe-|lis.|Et|in- car-|
 d8 d8 | ^c4 c4 e4 f4 | e4 e8 d4 | e4 e8 e4 | e6 e2 e4 f4 | e8 z8 | A8 f4 e4 | d12 c4 | B16 | %161
w: na- tus|est de Spi- ri-|tu San- *|cto, ex Ma-|ri- a Vir- gi-|ne:|et ho- mo|fa- ctus|est.|
 A8 A4 c4- | c2 B2 c4 d4 e4 | ^f4 g4 e4 e4- | e4 e4 d4 B4 | c4 d4 e4 f4 | g6 f2 e2 d2 f4- | %167
w: Cru- ci- fi-|* xus e- ti- am|pro no- * bis|* sub Pon- ti-|o Pi- la- *||
 f2 e2 e8 d4 | e8 z8 | z4 A4 c4 B4 | c4 d4 e8- | e4 d4 z4 c4 | A4 f4 e4 g4- | g4 f4 g8 | z8 G8 | %175
w: |to,|sub Pon- ti-|o Pi- la-|* to, pas-|sus et se- pul-|* tus est.|Et|
 c4 d4 e4 B4 | c4 d4 f4 e4- | e2 d2 d8 ^c4 | z4 e4 g4 c4 | f4 e8 d4 | e8 z8 | d8 e4 f4- | %182
w: re- sur- re- xit|ter- ti- a di-|* * * e|se- cun- dum|Scri- ptu- *|ras.|Et a- scen-|
 f4 d4 g8 | f8 e4 g4 | f4 e4 d2 d2 e4 | z4 f4 e4 d4 | c4 _B4 A4 d4- | d4 c4 f4 e4- | e4 d4 e8 | %189
w: * dit in|coe- lum, se-|det ad dex- te- ram,|se- det ad|dex- te- ram Pa-||* * tris.|
 A8 c6 d2 | e4 e4 d2 G2 g4- | g4 f4 g4 g4 | f2 f2 d4 e2 e2 f4 | d4 g6 f2 f4 | e2 dc B2 c2 d4 d4 | %195
w: Et i- te-|rum ven- tu- * *|* rus est cum|glo- ri- a iu- di- ca-|re vi- vos et|mor- * * * * * tu-|
 e4 e8 d4 | c4 G8 B4 | c6 A2 e2 f2 g4- | g2 fe f4 e4 e4- | e4 e4 f4 f4 | e8 z8 | z8 d6 d2 | %202
w: os: cu- ius|re- gni non|e- rit fi- * *|* * * * nis. Et|* in Spi- ri-|tum|et vi-|
 ^c2 d2 c4 d4 =c2 c2 | c6 c2 d2 e2 f4 | e2 e2 d4 e8 | c6 c2 d4 f2 f2 | e2 c2 d4 f4 e2 e2- | %207
w: vi- fi- can- tem: Qui ex|Pa- tre Fi- li- o-|que pro- ce- dit.|Qui cum Pa- tre et|Fi- li- o si- mul ad-|
 e2 d2 c4 B4 e4 | e4 e4 ^f4 g4 | e16 | e4 ^c6 c2 d2 d2 | e4 c6 c2 A4 |[M:3/1] B4 B4 d4 e4 c8 | %213
w: * o- ra- tur et|con- glo- ri- fi-|ca-|tur: qui lo- cu- tus|est per Pro- phe-|tas. Et u- nam san-|
 d4 e4 f8 d8 | e8 c8 d8 | e8 e12 e4 | d4 d4 f4 c4 f4 f4 | e4 e4 d8 B8 |[M:2/2] ^c4 e8 g4 | %219
w: ctam ca- tho- li-|cam et a-|po- sto- li-|cam et a- po- sto- li-|cam Ec- cle- si-|am. Con- fi-|
 f2 e4 e2 c2 d2 e4 | A4 z2 e2 f4 e4 | d2 d2 c2 d2 e4 A2 A2 | G2 A4 B4 c4 A2- | A2 B4 A2 ^G4 A4 | %224
w: te- or u- num ba- ptis-|ma Con- fi- te-|or u- num ba- ptis- ma in|re- mis- si- o- nem|* pec- ca- to- rum.|
 c4 c4 A8 | A4 ^c8 d4 | e4 c4 B4 e4 | g4 e4 f4 e4- | e2 d2 d8 ^c4 | d2 f2 e4 A4 z2 G2 | %230
w: Et ex- pe-|cto re- sur-|re- cti- o- nem|mor- tu- o- *||rum. Et vi- tam ven-|
 d4 ^c4 z2 f2 e2 =c2 | d2 d2 c2 BA B2 e2 f4 | e2 g2 f2 e2 f2 f2 e3 d | c2 BA B2 c2 A8 | %234
w: tu- ri ven- tu- ri|sae- cu- li, * * * et vi-|tam ven- tu- ri sae- cu- li, *||
 e4 g4 f2 f2 e3 f | g2 f2 e4 e8 | e16 |] z4 A6 B2 c2 d2 | e16 | d4 d6 c2 d2 e2 | f8 c8 | c8 B8- | %242
w: et vi- tam ven- tu- ri|sae- cu- li. A-|men.|San- * * *||ctus San- * * *|* ctus|San- *|
 B4 G4 d4 A4 | c16 | B4 d6 d2 d4 | e6 d2 ^c4 d4 | B2 e4 e2 e4 f4- | f4 d4 z4 e4- | e2 d2 d8 ^c4 | %249
w: ||ctus Do- mi- nus|De- us Sa- ba-|oth Do- mi- nus De-|* us Sa-|* * * ba-|
 d2 d4 d2 d4 e4 | ^c4 d2 =c2 B2 A2 B4- | B2 cd e8 A4 | B4 c8 B4 | c4 c4 e4 e4 | d8 f4 f4 | %255
w: oth Do- mi- nus De-|us Sa- * * * *||* * ba-|oth. Ple- ni sunt|coe- li et|
 e8 g4 d4- | d2 d2 e4 c4 d4 | e16 ||"^BENEDICTUS (Altus, Tenor, Bassus)" z8 e8- | e4 e4 e8 | %260
w: ter- ra glo-|* ri- a tu- *|a.|Be-|* ne- di-|
 d8 A4 c4- | c2 B2 A2 B2 c2 d2 e4- | e4 d4 e8 | z8 z4 e4- | e4 e4 e8 | d8 c6 d2 | e4 f6 e2 d2 c2 | %267
w: ctus qui ve-||* * nit|Be-|* ne- di-|ctus qui *|* ve- * * *|
 B4 c4 B8 | A4 f8 f4 | f8 e8 | z4 e8 e4 | e8 d4 B4 | c2 B2 c2 d2 e4 d4 | e8 d8 | z16 | z8 G8 | %276
w: |nit Be- ne-|di- ctus|be- ne-|di- ctus qui|ve- * * * * *|* nit||in|
 c6 c2 A4 c4- | c2 d2 e2 d2 c2 B2 A2 G2 | A4 c4 G4 A4 | c6 c2 A4 f4- | f4 e4 d4 d4 | e8 c8 | %282
w: no- mi- ne Do-||* mi- ni in|no- mi- ne Do-|* mi- ni. Ho-|san- na|
 z4 A4 f4 e4 | A8 B8 | c16 | B16 |]"^AGNUS DEI" z8 e8- | e4 f4 e4 d2 c2 | d4 e4 c4 g4- | %289
w: Ho- san- na|in ex-|cel-|sis.|A-|* gnus * De- *||
 g4 f4 g2 d2 g4 | f2 e4 d4 c2 c4 | A2 A2 a4 g2 g2 c2 d2 | e4 A4 z4 z2 B2 | c4 B4 e4 d2 B2 | %294
w: * * i qui tol-|lis pec- ca- ta mun-|di, qui tol- lis pec- ca- ta|mun- di, qui|tol- lis pec- ca- ta|
 c4 B2 B2 A4 B2 g2 | f2 e2 d4 e4 e4- | e4 g4 f4 e2 e2- | e2 dc d4 e8 | z8 z4 A4- | A4 G4 A6 B2 | %300
w: mun- di, qui tol- lis pec-|ca- ta mun- di, mi-|* se- re- re no-|* * * * bis,|mi-|* se- re- re|
 c4 B4 A4 ^G4 | A8 z4 e4- | e4 d4 c4 B4 | A4 B4 c8 | B16 |] %305
w: no- * * *|bis, mi-|* se- re- re|no- * *|bis.|
V:3
 z16 | z8 c8 | B6 c2 A4 B4 | c8 B4 B4- | B2 c2 A4 c8 | B8 A8 | E8 z8 | z8 z4 G2 A2 | %8
w: |Ky-|* ri- e e-|lei- son e-|* * * lei-||son|Ky- *|
 B2 c2 d2 A2 c4 B4 | e4 d4 c8 | B16 | z16 | z8 z4 E4 | F4 G4 A4 D4 | E8 z4 F4 | D4 A8 G4 | %16
w: * * * * * ri-|e e- lei|son.||Chri-|ste e- lei- *|son Chri-|ste e- *|
 A4 B4 c4 A4- | A4 ^G4 A4 B4 | c4 e4 d8 | c4 A2 B2 c2 B2 c4 | A4 A4 _B8 | A16 | B8 c6 B2 | %23
w: * * * lei-||son, e- lei-|son, Chri- * * * *|ste e- lei-|son.|Ky- * *|
 A4 d4 B4 c4- | c2 d2 e2 dc B2 A2 d4- | d2 c2 c2 BA B2 c2 d4 | A2 c4 B2 c4 A4 | %27
w: * ri- e e-|* * * * * * * lei-||* * * son e-|
 F2 G2 A2 B2 c2 A2 G4 | C8 D8 | G8 E8 | G4 G8 A4- | A2 G2 F6 G2 A4 | z2 d4 c2 B4 B4 | c6 B2 A8 | %34
w: lei- * * * * * *|||son Ky- *|* * * ri- e|Ky- ri- e e-|lei- * *|
 B16 |]"^GLORIA" G8 A8 c8 c8 c8 B8 c8 d8 B8 d8 c8 B8 B8 ||[M:2/2] z16 | z8 z4 c4- | c4 c4 B6 c2 | %39
w: son.|Glo- * * ri- a in ex- cel- sis De- * * o||Et|* in ter- ra|
 A4 B4 c4 c4 | B4 G8 E4 | E4 F4 E8 | A4 B4 c6 B2 | A4 B4 G2 c4 c2 | c6 B2 A4 B4 | z2 c4 c2 c4 A4 | %46
w: pax ho- mi- ni-|bus bo- nae|vo- lun- ta-|tis. Lau- da- mus|te. Be- ne- di- ci-|mus * * te.|Ad- o- ra- mus|
 A8 z4 d4 | c2 A2 B2 c2 d4 c4- | c2 B2 B4 c4 A4 | A4 c8 B4 | d4 e4 e4 d4 | c6 c2 A4 e4- | %52
w: te. Glo-|ri- fi- ca- mus te. Gra-|* ti- as a- gi-|mus ti- bi|pro- pter ma- gnam|glo- ri- am tu-|
 e2 d2 c8 B4 | c6 B2 A8 | G2 B2 B2 B2 c4 B4 | A4 ^G4 A4 E4 | A4 B4 c4 B4 | A4 G2 F2 E4 e4- | %58
w: ||am. Do- mi- ne De- us,|Rex coe- le- stis,|De- us Pa- ter|o- * * * mni-|
 e2 d2 d6 c2 c2 BA | B4 B4 A2 A2 A2 A2 | A4 c4 c2 BA B2 c2 | A2 A2 A4 c8- | c8 B4 c4- | %63
w: |* po- tens. Do- mi- ne|Fi- li u- * * * ni-|ge- ni- te, Je-|* su Chri-|
 c4 B4 c4 c4 | B2 c2 A4 B4 z4 | z8 d4 c2 B2 | d4 e4 A4 B4 | c8 B4 c4- | c4 A4 A4 A4- | A4 ^G4 A8 | %70
w: * * ste. Do-|mi- ne De- us,|Do- mi- ne|De- us A- gnus|De- i Fi-|* li- us Pa-|* * tris.|
 z16 | z16 | z4 B8 B4 | c4 A4 d8- | d4 c2 B2 A8 | G4 B4 c8 | B6 c2 A4 B4 | c3 B A2 B4 A4 G2 | %78
w: ||mi- se-|re- re no-||bis. Qui tol-|lis pec- ca- ta|mun- * * * * *|
 A4 A4 ^G4 A2 A2- | A2 c4 B4 A4 ^G2 | A4 A8 A4 | A4 c8 c4 | c4 A4 B4 c4 | B2 A2 A8 ^G4 | %84
w: di, qui tol- lis pec-|* ca- ta mun- *|di su- sci-|pe de- pre-|ca- ti- o- nem|no- * * *|
 A8 z2 E2 A4 | G2 G2 d2 d2 c4 B4 | A2 c4 G2 A2 G2 ^F4 | G4 z4 z8 | z8 z4 z2 A2- | A2 _B4 A2 A4 G4 | %90
w: stram. Qui se-|des ad dex- te- ram Pa-|tris mi- se- re- re no-|bis.|Tu|* so- lus Do- mi-|
 A4 A4 c4 B4 | c4 A4 B4 B4 | c4 B4 A4 c4- | c4 c4 G8 | d8 G8 | F8 E8 | z4 A4 A4 c4 | B6 B2 d4 e4 | %98
w: nus. Tu so- lus|Do- mi- nus. Tu|so- lus Al- tis-|* si- mus,|Je- su|Chri- ste.|Cum San- cto|Spi- ri- tu in|
 d6 d2 c4 A4- | A4 B4 c8 | d4 z2 G2 A3 A G2 E2 | F4 c4 A2 A2 c3 c | A4 B2 c2 A2 F2 E4 | %103
w: glo- ri- a De-|* i Pa-|tris, in glo- ri- a De-|i Pa- tris, in glo- ri-|a De- i Pa- tris, A-|
 D2 D2 _B2 A2 A2 A2 e3 e | d4 c2 G2 c4 B4 | c8 B8 |]"^CREDO" G8 E8 F8 D8 E8 G8 A8 | %107
w: men, in glo- ri- a, in glo- ri-|a De- i Pa- tris.|A- men.|Cre- do in u- num De- um|
[M:2/2] c8 B6 c2 | A4 B4 c6 d2 | e12 d4 | z4 c4 B6 c2 | A4 B4 ^c4 d4- | d4 ^c4 d8 | G4 E4 c6 c2 | %114
w: Pa- trem o-|mni- po- ten- *|* tem,|fa- cto- rem|coe- li et ter-|* * rae,|vi- si- bi- li-|
 A4 d8 c4 | B8 z2 A2 B4 | c6 A2 d4 d4 | c4 c4 d4 c4- | c2 B2 AGAB c4 G4 | d8 G8- | G4 E4 e4 d4- | %121
w: um o- mni-|um, et in-|vi- si- bi- li-|um. Et in u-|* num Do- * * * * mi-|num Je-|* sum Chri- *|
 d4 c4 d8 | z8 z4 c4 | _B2 G2 A2 =B2 c4 B4 | d4 c4 B4 c4- | c4 d4 c8 | d8 d8 | d2 B4 B2 c4 B4 | %128
w: * * stum,|Fi-|li- um De- i u- ni-|ge- ni- tum. Et|* ex Pa-|tre na-|tum an- te o- mni-|
 A4 d8 c4 | B6 c2 d4 A4 | c4 B4 d4 G4 | z4 d8 c4- | c4 B4 c4 e4 | d4 d8 B4 | c6 c2 d4 e4- | %135
w: a sae- cu-|la. * * De-|um de De- o,|lu- men|* de lu- mi-|ne, De- um|ve- rum de De-|
 e2 d2 c8 B4 | c8 z8 | z4 e6 e2 c2 d2 | e4 A4 e3 e c2 c2 | d2 e2 c8 d2 G2- | G2 A4 B4 c4 A2- | %141
w: * o ve- *|ro.|Ge- ni- tum, non|fa- ctum con- sub- stan- ti-|a- lem Pa- tri: per|* quem o- mni- a|
 A2 B4 A4 G2 A4- | A8 z4 A4 | _B4 A2 A2 G4 c4 | d4 z2 A2 _B2 B2 A4 | G4 F4 G8 | G4 d8 c4 | %147
w: * fa- * cta sunt.|* Qui|pro- pter nos ho- mi-|nes et pro- pter no-|stram sa- lu-|tem de- scen-|
 B4 A4 G8 | d8 A8 | A16 | A16 | G12 E4 | F8 G8 | E4 E4 c4 c4 | B8 A8 | B4 ^G8 G4 | A4 B4 ^c4 d4 | %157
w: dit de coe-||lis.|Et|in- car-|na- tus|est de Spi- ri-|tu San-|cto, ex Ma-|ri- a Vir- gi-|
 B4 B4 e8- | e4 d4 c8- | c4 B4 A8- | A4 ^G2 ^F2 G8 | z16 | z16 | z8 A6 A2 | G4 E4 ^F4 G4 | %165
w: ne: et ho-|* mo fa-|* ctus est.||||Cru- ci-|fi- xus e- ti-|
 A4 B4 c4 B2 A2 | G4 c6 B2 A4- | A2 G2 F2 E2 F8 | E4 E4 c4 A4 | B4 c4 F4 G4 | z4 G4 E4 c4- | %171
w: am pro no- * *|||bis sub Pon- ti-|o Pi- la- to|pas- sus et|
 c4 B4 c2 B2 A2 G2 | F6 G2 A4 G4 | d8 G8 | c8 d4 e4- | e4 B4 c4 d4 | e4 d8 c4 | d4 c2 B2 A4 A4 | %178
w: * se- pul- * * *|* * * tus|est. Et|re- sur- re-|* xit ter- ti-|a di- *|e * * * se-|
 A8 G4 F2 G2 | A2 B2 c4 A4 B4 | c8 z8 | z8 A8- | A4 B4 c4 G4 | d8 e8 | d4 A4 B4 c4 | d6 A2 c4 d4 | %186
w: cun- dum Scri- *|* * * ptu- *|ras.|Et|* a- scen- dit|in coe-|lum, se- det ad|dex- te- ram Pa-|
 A4 d4 c4 B4 | A8 A4 G4 | F8 E8 | E4 ^F2 F2 G4 A4 | B4 c4 d8 | d4 c2 c2 B4 c4- | c2 d2 B4 G4 A4 | %193
w: tris, se- det ad|dex- te- ram|Pa- tris.|Et i- te- rum ven-|tu- rus est|cum glo- ri- a iu-|* di- ca- re vi-|
 B4 c4 A6 B2 | c2 B4 AG A4 A4 | c4 c8 d4 | e8 d8 | z4 A4 G2 A2 B2 c2 | d4 d4 B8 | A8 z8 | %200
w: vos et mor- *|* * * * * tu-|os: cu- ius|re- gni|non e- * * *|* rit fi-|nis.|
 z8 c6 d2 | B4 c4 d2 A4 A2 | A2 _B2 A4 D4 A2 A2 | A4 G2 A4 B2 c4 | B2 c2 A4 B8 | A6 A2 G4 F2 F2 | %206
w: San- ctum|Do- mi- num et vi-|vi- fi- can- tem: Qui ex|Pa- tre Fi- li- o-|que pro- ce- dit.|Qui cum Pa- tre et|
 A2 A2 G4 d4 A4 | c2 G2 A4 E4 c4 | B4 A4 d8- | d4 c4 B8 | A4 A6 A2 A2 A2 | c4 A2 A4 G4 ^F2 | %212
w: Fi- li- o si- mul|ad- o- ra- tur et|con- glo- ri-|* fi- ca-|tur: qui lo- cu- tus|est per Pro- phe- *|
[M:3/1] G8 z8 z4 c4 | B4 c4 A8 G8 | G8 A8 B8 | c8 c8 c8 | B8 c12 c4 | c4 c4 A8 ^G8 | %218
w: tas. Et|u- nam san- ctam|ca- tho- li-|cam et a-|po- sto- li-|cam Ec- cle- si-|
[M:2/2] A4 E4 A4 B4 | c4 B4 A4 B4 | d4 A4 A6 A2 | D4 A4 c8- | c4 F4 G4 c4 | d6 c2 B4 c4 | %224
w: am. Con- fi- te-|or u- num ba-|ptis- ma in re-|mis- si- o-|* nem pec- ca-|to- * * rum.|
 A4 E4 F8 | E8 z8 | E4 F4 G4 A4 | B4 c4 d4 G4 | _B8 A8- | A4 c4 c8 | A4 z2 e4 d4 c2 | %231
w: Et ex- pe-|cto|re- sur- re- cti-|o- nem mor- tu-|o- rum.|* Et vi-|tam ven- tu- ri|
 B2 A2 A4 z2 E2 A4 | G2 E2 F2 c2 A2 B2 c3 B | A2 D2 G4 F2 F2 E2 e2 | e2 dc d2 e2 c4 c4- | %235
w: sae- cu- li, et vi-|tam ven- tu- ri sae- cu- li, *|* et vi- tam ven- tu- ri|sae- * * * cu- li. A-|
 c4 B4 c8 | B16 |] A6 B2 c2 d2 e4- | e2 d2 c4 B4 c4 | A8 B8 | z8 A8- | A8 G8- | G4 E4 ^F8 | G8 A8 | %244
w: |men.||||San-||* ctus San-||
 D8 G6 G2 | G4 A6 G2 ^F4 | G4 C2 c4 c2 A4 | d6 c2 B4 c4 | A4 G4 A8 | B16 | z4 d6 d2 d4 | %251
w: ctus Do- mi-|nus De- us Sa-|ba- oth Do- mi- nus|De- us Sa- *|* * ba-|oth,|Do- mi- nus|
 e8 ^c4 d4- | d4 G4 G4 G4 | G4 G4 c8- | c4 B4 c4 d4- | d4 c4 B6 B2 | B4 c8 B2 A2 | B16 || z16 | %259
w: De- us Sa-|* ba- oth. Ple-|ni sunt coe-|* li et ter-|* ra glo- ri-|a tu- * *|a.||
 z16 | z16 | z4 A8 A4 | A8 G4 E4 | F2 E2 D2 E2 F2 G2 A2 B2 | c4 B2 A2 B4 c4 | A6 G2 A2 B2 c4- | %266
w: ||Be- ne-|di- ctus qui|ve- * * * * * * *|||
 c2 B2 A2 G2 A4 B4 | ^G4 A8 G4 | A8 z4 A4- | A4 A4 A8 | G4 E4 G2 F2 G2 A2 | B2 G2 c2 B2 A4 e4- | %272
w: ||nit Be-|* ne- di-|ctus qui ve- * * *||
 e2 d2 c8 B4 | c8 z4 G4- | G4 c6 c2 A4 | c6 d2 e2 d2 c2 B2 | A2 G2 F2 E2 F4 A4 | G4 G8 c4- | %278
w: |nit in|* no- mi- ne|Do- * * * * *|* * * * * mi-|ni in no-|
 c2 c2 A4 c6 B2 | A2 G2 F2 E2 F2 G2 A4- | A2 B2 c8 B4 | c4 G4 A8 | G4 F2 G2 A2 B2 c4- | %283
w: * mi- ne Do- *||* * * mi-|ni. Ho- san-|na in * * * *|
 c2 B2 A8 G4 | F4 E4 A8 | ^G16 |] z8 z4 c4- | c4 c4 B8- | B4 A2 G2 A4 d4 | c8 d4 z4 | z8 A4 e4 | %291
w: * * * ex-|cel- * *|sis.|A-|* gnus De-||* i|qui tol-|
 d6 c2 B2 c2 A4 | B2 B2 d2 A2 c4 B4 | z8 z4 B4 | e8 c2 d2 e4 | A2 c4 B2 c4 A4- | A4 G4 D4 E4 | %297
w: lis pec- ca- ta mun-|di, pec- ca- ta mun- di,|qui|tol- lis pec- ca-|ta mun- * di, mi-|* se- re- re|
 F8 E8 | A4 G4 A6 B2 | c4 B4 A3 G F4 | E8 z4 e4- | e4 d4 c4 B4 | A8 e2 e4 d2 | c4 B4 A8 | ^G16 |] %305
w: no- bis,|mi- se- re- *|* re no- * *|bis, mi-|* se- re- re|no- bis, mi- se-|re- re no-|bis.|
V:4
 z16 | z16 | E,6 E,2 ^F,4 G,4 | A,8 E,6 F,2 | G,2 A,2 D,4 C,4 A,,4 | E,8 z4 A,4- | %6
w: ||Ky- ri- e e-|lei- son *|* * e- lei- *|son Ky-|
 A,4 G,6 E,2 ^F,4 | G,4 A,4 G,8- | G,4 D,4 E,8 | A,,16 | E,16 | z16 | z16 | z4 C,4 A,,4 A,4- | %14
w: * * ri- e|e- * lei-|* son e-|lei|son.|||Chri- ste e-|
 A,4 ^G,4 A,6 =G,2 | F,8 E,4 E,4 | F,4 G,4 A,4 D,4 | E,8 z8 | z4 E,4 F,4 G,4 | A,4 D,4 E,4 C,4 | %20
w: * * lei- *|* son Chri-|ste e- lei- *|son,|Chri- ste e-|lei- * * *|
 D,8 G,,8 | A,,16 | z4 E,8 F,4- | F,2 E,2 D,4 E,4 C,4 | A,,2 B,,2 C,2 D,2 E,2 F,2 D,4 | %25
w: |son.|Ky- *|* * ri- e e-|lei- * * * * * son|
 A,6 G,F, E,4 D,2 E,2 | F,4 G,4 C,4 F,4 | z8 z4 G,4- | G,4 A,6 G,2 ^F,4 | G,4 C,6 B,,2 A,,4 | %30
w: Ky- * * * ri- *|e e- lei son|Ky-||ri- e * *|
 G,,4 G,,4 C,8 | z4 D,6 E,2 F,4 | G,4 A,4 E,4 E,4 | A,6 G,2 F,8 | E,16 |] z104 ||[M:2/2] z16 | %37
w: e- lei son|Ky- * *|* ri- e e-|lei- * *|son.|||
 z16 | A,,4 A,,4 E,6 E,2 | ^F,4 G,4 A,4 A,4 | E,8 C,8 | A,,4 A,8 G,4 | A,4 E,2 E,2 A,6 G,2 | %43
w: |Et in ter- ra|pax ho- mi- ni-|bus bo-|nae vo- lun-|ta- tis. Lau- da- *|
 ^F,4 G,4 C,2 C,4 C,2 | F,6 G,2 D,4 G,4 | C,4 F,4 C,4 D,4 | A,,8 z8 | A,4 G,2 E,2 F,2 G,2 A,4 | %48
w: * mus te. Be- ne-|di- ci- mus te.|Ad- o- ra- mus|te.|Glo- ri- fi- ca- mus te.|
 G,6 G,2 C,4 D,4- | D,2 D,2 A,,4 E,8 | D,4 C,6 C,2 G,4 | E,4 F,6 F,2 E,4 | A,8 G,8 | z16 | %54
w: Gra- ti- as a-|* gi- mus ti-|bi pro- pter ma-|gnam glo- ri- am|tu- am.||
 z2 G,2 E,2 E,2 A,4 E,4 | z2 A,2 B,2 B,2 C4 B,4 | A,4 ^G,4 A,4 E,4 | A,,4 B,,4 C,4 A,,4 | %58
w: Do- mi- ne De- us,|Do- mi- ne De- us,|Rex coe- le- stis,|De- us Pa- ter|
 G,,8 A,,4 A,,4 | E,8 A,,4 A,,2 A,,2 | D,4 C,4 F,2 F,2 E,2 D,C, | D,2 D,2 A,,4 F,8 | C,8 G,8- | %63
w: o- mni- po-|tens. Do- mi- ne|Fi- li u- ni- ge- * *|* ni- te, Je-|su Chri-|
 G,8 F,4 A,4 | G,2 A,2 F,4 E,4 z4 | z4 G,4 ^F,2 G,2 E,4 | D,4 A,8 G,4 | A,8 E,4 A,,4- | %68
w: * ste. Do-|mi- ne De- us,|Do- mi- ne De-|us A- gnus|De- i Fi-|
 A,,4 A,,4 D,8 | E,8 A,,8 | z16 | z16 | z4 G,8 G,4 | F,8 G,8 | D,16 | G,,8 z4 A,,4 | E,8 D,6 D,2 | %77
w: * li- us|Pa- tris.|||mi- se-|re- re|no-|bis. Qui|tol- lis pec-|
 C,4 D,4 E,8 | A,,4 A,,4 E,4 A,,4 | D,2 A,4 G,2 A,4 E,4 | A,,12 D,4 | D,4 C,8 C,4 | %82
w: ca- ta mun-|di, qui tol- lis|pec- ca- ta mun- di|su- sci-|pe de- pre-|
 F,6 F,2 E,4 C,4 | D,8 E,8 | z2 A,,2 D,4 C,2 C,2 F,2 F,2 | C,4 D,4 A,,2 A,4 G,2 | F,4 E,4 D,8 | %87
w: ca- ti- o- nem|no- stram.|Qui se- des ad dex- te-|ram Pa- tris mi- se-|re- re no-|
 C,4 z4 z8 | z8 z4 A,,4 | D,4 C,4 D,4 _B,,4 | A,,4 A,,4 A,4 G,4 | A,4 F,4 E,4 E,4 | %92
w: bis.|Tu|so- lus Do- mi-|nus. Tu so- lus|Do- mi- nus. Tu|
 A,4 G,4 F,4 A,4- | A,4 G,2 F,2 E,4 E,4 | D,4 G,8 C,4 | D,8 A,,8 | z4 D,4 D,4 A,,4 | %97
w: so- lus Al- tis-|* * * * si-|mus, Je- su|Chri- ste.|Cum San- cto|
 E,6 E,2 D,4 C,4 | G,6 G,2 E,4 F,4- | F,4 E,4 A,8 | G,4 z4 z8 | z4 z2 A,,2 D,3 D, C,4 | %102
w: Spi- ri- tu in|glo- ri- a De-|* i Pa-|tris,|in glo- ri- a|
 F,3 F, E,2 C,2 D,4 A,,2 A,,2 | A,3 A, G,2 F,4 F,2 E,4 | G,4 C,6 D,2 E,4 | A,,8 E,8 |] z56 | %107
w: De- i Pa- tris, A- men, in|glo- ri- a De- i Pa-|tris. A- * *|* men.||
[M:2/2] A,8 G,6 E,2 | ^F,4 G,4 A,8- | A,4 E,4 z8 | z4 A,,4 E,6 E,2 | F,4 G,4 A,8 | A,8 D,8 | %113
w: Pa- trem o-|mni- po- ten-|* tem,|fa- cto- rem|coe- li et|ter- rae,|
 z8 z4 A,4- | A,4 D,4 G,4 A,4 | E,8 ^F,4 G,4 | C,8 z8 | z16 | z16 | z16 | C,12 G,,4 | A,,8 D,8 | %122
w: vi-|* si- bi- li-|um o- mni-|um,||||Je- sum|Chri- stum,|
 z16 | G,4 F,2 D,2 E,2 F,2 G,4 | F,4 A,4 G,4 F,4 | A,4 G,4 A,8 | G,8 D,8 | G,2 G,4 G,2 C,4 G,4 | %128
w: |Fi- li- um De- i u-|ni- ge- ni- tum.|Et ex Pa-|tre na-|tum an- te o- mni-|
 D,8 G,4 A,4 | E,8 D,8 | A,,4 E,4 D,4 C,4 | G,8 D,4 E,4 | F,4 G,4 C,8 | z8 G,8 | E,4 F,6 F,2 E,4 | %135
w: a sae- cu-|la. De-|um de De- o,|lu- men de|lu- mi- ne,|De-|um ve- rum de|
 A,4 A,4 G,8 | C,8 z8 | z4 E,6 E,2 F,4 | E,4 D,4 A,,4 A,3 A, | G,2 E,2 F,2 F,2 C,4 G,4 | %140
w: De- o ve-|ro.|Ge- ni- tum,|non fa- ctum con- sub-|stan- ti- a- lem Pa- tri:|
 C,4 D,4 E,4 F,4 | D,4 E,8 A,,4 | D,4 z4 z8 | z4 z2 A,2 _B,4 A,2 A,2 | G,4 ^F,4 G,4 D,4 | %145
w: per quem o- mni-|a fa- cta|sunt.|Qui pro- pter nos|ho- mi- nes et|
 E,4 D,4 C,4 B,,2 B,,2 | C,4 G,,4 z4 A,4 | G,4 F,4 E,8 | D,16 | A,,16 | F,16 | C,12 C,4 | %152
w: pro- pter no- stram sa-|lu- tem de-|scen- dit de|coe-|lis.|Et|in- car-|
 _B,,8 G,,8 | A,,4 A,,4 A,4 A,4 | E,8 F,8 | E,4 E,8 E,4 | A,4 ^G,4 A,4 D,4 | E,8 A,,8 | F,12 C,4 | %159
w: na- tus|est de Spi- ri-|tu San-|cto, ex Ma-|ri- a Vir- gi-|ne: et|ho- mo|
 D,8 D,8 | E,16 | z16 | z16 | z16 | z16 | z16 | z16 | z16 | z16 | z16 | z16 | z16 | z16 | z16 | %174
w: fa- ctus|est.||||||||||||||
 z16 | z16 | z16 | z16 | z16 | z16 | z16 | z16 | z16 | z16 | z16 | z16 | z16 | z16 | z16 | %189
w: |||||||||||||||
 A,,4 D,2 D,2 C,4 F,4 | E,4 C,4 G,6 F,E, | D,4 A,4 G,2 G,2 E,4 | F,4 G,4 E,4 D,4 | G,4 C,4 D,8 | %194
w: Et i- te- rum ven-|tu- rus est * *|* cum glo- ri- a|iu- di- ca- re|vi- vos et|
 E,4 E,4 D,8 | C,12 B,,4 | C,8 G,8 | F,8 E,8 | D,8 E,8 | A,,8 z8 | z8 F,6 D,2 | G,4 E,4 D,8 | %202
w: mor- tu- os:|cu- ius|re- gni|non e-|rit fi-|nis.|San- ctum|Do- mi- num|
 z8 F,6 F,2 | F,4 E,2 F,4 G,2 A,4 | G,2 A,2 F,4 E,8 | z16 | z16 | z8 z4 A,4 | ^G,4 A,4 D,4 =G,4 | %209
w: Qui ex|Pa- tre Fi- li- o-|que pro- ce- dit.|||et|con- glo- ri- fi-|
 A,8 E,8 | z4 A,,6 A,,2 D,2 D,2 | C,4 F,4 C,4 D,4 |[M:3/1] G,,8 z8 C,8 | G,4 E,4 D,8 G,,8 | %214
w: ca- tur:|qui lo- cu- tus|est per Pro- phe-|tas. Et|u- nam san- ctam|
 C,8 F,8 D,8 | C,8 C,8 C,8 | G,8 F,12 F,4 | C,4 C,4 D,8 E,8 |[M:2/2] A,,4 z4 z4 E,4 | %219
w: ca- tho- li-|cam et a-|po- sto- li-|cam Ec- cle- si-|am. Con-|
 A,4 E,4 F,4 E,4 | D,4 ^C,4 D,4 A,,4 | F,6 F,2 E,4 F,4 | C,4 D,4 E,4 F,4 | D,4 E,8 A,,4- | %224
w: fi- te- or u-|num ba- ptis- ma|in re- mis- si-|o- nem pec- ca-|to- rum. Et|
 A,,4 A,,4 D,8 | A,,8 z8 | z16 | z16 | z8 z4 A,,4 | D,4 C,4 F,4 E,2 C,2 | D,2 D,2 A,,4 D,4 A,4 | %231
w: * ex- pe-|cto|||Et|vi- tam ven- tu- ri|sae- cu- li, et vi-|
 G,2 D,2 F,2 F,2 E,2 E,2 D,4 | z4 z2 A,,2 D,4 C,4 | F,4 E,2 C,2 D,2 D,2 A,,2 A,,2 | %234
w: tam ven- tu- ri sae- cu- li,|et vi- tam|ven- tu- ri sae- cu- li, et|
 A,4 G,2 E,2 F,2 F,2 C,4- | C,2 D,2 E,4 A,,8 | E,16 |] z8 A,,6 B,,2 | C,2 D,2 E,2 F,2 G,2 E,2 A,4 | %239
w: vi- tam ven- tu- ri sae-|* cu- li. A-|men.|San- *||
 D,8 G,6 F,E, | D,2 E,2 F,2 G,2 A,4 A,,4- | A,,2 B,,2 C,2 D,2 E,6 D,C, | B,,4 C,4 D,8 | %243
w: ctus San- * *||||
 C,6 B,,2 A,,8 | G,,8 z8 | z16 | z8 z4 D,4- | D,2 D,2 D,4 E,4 C,4 | D,4 _B,,4 A,,8 | %249
w: |ctus||Do-|* mi- nus De- us|Sa- ba- oth|
 z4 G,6 G,2 G,4 | A,4 ^F,4 G,6 =F,2 | E,2 D,2 C,2 B,,2 A,,4 D,4 | G,,16 | C,8 C,4 C,4 | %254
w: Do- mi- nus|De- us Sa- *|* * * * * ba-|oth.|Ple- ni sunt|
 G,8 F,4 D,4 | A,8 G,4 G,4- | G,2 G,2 E,4 F,8 | E,16 || A,12 A,4 | A,8 G,4 E,4 | %260
w: coe- li et|ter- ra glo-|* ri- a tu-|a.|Be- ne-|di- ctus qui|
 F,2 E,2 D,2 E,2 F,2 G,2 A,4- | A,2 B,2 C2 B,2 A,2 G,2 F,2 E,2 | F,8 E,8 | z4 A,8 A,4 | %264
w: ve- * * * * * *||* nit|Be- ne-|
 A,8 G,4 E,4 | F,2 E,2 D,2 E,2 F,2 G,2 A,4- | A,2 G,2 F,2 E,2 D,8 | E,16 | z4 D,8 D,4 | %269
w: di- ctus qui|ve- * * * * * *||nit|Be- ne-|
 D,8 C,4 A,,4 | C,2 B,,2 C,2 D,2 E,6 F,2 | G,2 E,2 A,2 G,2 F,4 G,4 | A,8 G,8 | z4 C,4 G,6 G,2 | %274
w: di- ctus qui|ve- * * * * *||* nit|in no- mi-|
 E,4 F,4 E,4 F,4- | F,4 E,2 D,2 C,8 | z16 | C,16 | F,6 F,2 E,4 F,4- | %279
w: ne Do- * *|* mi- * ni||in|no- mi- ne Do-|
 F,2 G,2 A,2 G,2 F,2 E,2 D,2 C,2 | D,4 C,4 G,8 | C,8 F,8 | E,4 D,8 C,4 | F,8 E,8 | A,,16 | E,16 |] %286
w: |* mi- ni.|Ho- san-|na in ex-|cel- *||sis.|
 A,16 | A,8 G,8- | G,4 F,2 E,2 F,4 G,4 | A,8 G,4 E,4 | A,4 G,4 F,4 E,2 C,2 | D,4 A,,4 E,4 F,4 | %292
w: A-|gnus De-||* i qui|tol- lis pec- ca- ta|mun- di, qui tol-|
 E,4 D,4 C,2 A,,2 E,4 | A,,2 A,2 G,4 A,2 E,2 G,2 G,2 | A,4 E,2 E,2 F,4 E,2 C,2 | %295
w: lis pec- ca- ta mun-|di, qui tol- lis pec- ca- ta|mun- di, qui tol- lis pec-|
 D,2 C,2 G,4 C,6 D,2 | E,8 z8 | z4 A,8 G,4 | D,4 E,4 F,8 | E,8 z4 A,4- | A,4 G,4 D,4 E,4 | %301
w: ca- ta mun- di, *||mi- se-|re- re no-|bis, mi-|* se- re- re|
 F,8 E,8 | A,,16- | A,,16 | E,16 |] %305
w: no- *|||bis.|

